X:313
T: Die Erscheinung auf dem Kirchhof (57),
N: T0202
O: Luxemburg
S: Singendes Volk, Esch-Alzette 1937 posth.]
N: Esch-Alzette, fff Dominik Mller, 1915
R: Liebeslieder]
M: 4/4
L: 1/16
K: C
G2G2 | c6G2F2E2D2C2 | B,2D2F4z4
F2F2 | d6c2B2A2G2F2 | E2G2c4z4
c2c2 | c4A4z4F2F2 | F4E4z4d2d2 | d4B4z4G2G2 | G4^F4z4
E2G2 | e6d2c2B2Ad2c | B8z4

@@@ Tune index: 8367
